!!!OTL: 735. Treulieb am Grabe der Geliebten.
!!!ODT: 1820
!!!ARE: Europa, Mitteleuropa, Deutschland, Niederrhein, Meurs
!!!SCT: E0735
!!!TXL: @@DE
!!!YEM: Copyright 1995, estate of Helmut Schaffrath.
**kern	**text
*ICvox	*
*M2/4	*
*k[b-]	*
*F:	*
!LO:TX:a:t=Langsam.	!
!LO:TX:a:t=Aus Meurs 1820.	!
{8f	Schreib
=1	=1
8e	du
8g	an
8g	je-
8g	-nem
=2	=2
(<8.gL	Or-
16aJ	.
8b-)}	-te
{8cc	mit
=3	=3
8.a	eig-
16g	-ner
8a	Hand
8g	die
=4	=4
8.aL	Wor-
16b-J	.
8cc;}	-te
{8c	Die
=5	=5
4f	e-
8f	-wig
8f	ich
=6	=6
4dd	lie-
8cc}	-be,
{8b-	ſie
=7	=7
(4a	ru-
8.cc)	-het
16g	all-
=8	=8
(4g	-hier.
8f)}	.
==	==
!!!AGN: Liebes - Lied, Leid, Klage, Tod
!!!ONB: ESAC (Essen Associative Code) Database: ERK2
!!!AMT: simple duple
!!!AIN: vox
!!!EED: Helmut Schaffrath
!!!EEV: 1.0
!!!RDF**kern: < = below
!!!GTL: Liebeslieder [Neuere (aus dem 18. bis 19. Jahrh.) - Liebesleid] 678-740
!!!URL-scan: https://rosdok.uni-rostock.de/mcrviewer/recordIdentifier/rosdok_ppn745177662/iview2/phys_0541.iview2?x=175.40593030447008&y=215.33999422215857&scale=0.7029437510502773&rotation=0&layout=singlePageLayout
!!!ENC: Anna Maria Matuszewska
!!!EEV: 2024/12/16
*-	*-
